X:1
T:Hanter-dro 1
G:Kazimodal
R:Hanter-dro
C:Traditionnel, arrangement Ronan Keryell http://kazimodal.trad.org
Q:C2=116
P:A5
M:3/4
S:Tonioù Breizh-Izel 1926 (Pleuigner)
K:C
P:A
%\large
|: "C"{CD}CB,/2C/2 "Dm"(DF) "Em"{EF}EC | "F"(DE/2)F/2 "G"GF "Am"{EF}EC |\
"C"{CD}CB,/2C/2 "Dm"(DF) "Em"{EF}EC | "F"(DE/2)F/2 "G"G{FE}F D2 :|
|: "C"{EF}ED/2E/2 "Dm"GG "Am"(EC) | "F"{CD}CB,/2C/2 "Dm"(ED/2)C/2 "G"D2 |\
"C"{EF}ED/2E/2 "Em"GF "Am"(EC) | "F"{CD}CB,/2C/2 "G"(DE) "C"C2 :|

\bigskip


